!!!COM: Corelli, Arcangelo
!!!OTL: 
!!!ONM: Opus 6, No. 4
!!!OMV: 1
!!!CDT: 1653/2/17/-1713/1/8/
!!!OCY: Italia
**kern	**kern	**kern	**kern	**kern	**kern	**kern
*clefC	*clefG	*clefG	*clefG	*clefC	*clefG	*clefG
*k[f#c#]	*k[f#c#]	*k[f#c#]	*k[f#c#]	*k[f#c#]	*k[f#c#]	*k[f#c#]
*D:	*D:	*D:	*D:	*D:	*D:	*D:
*M4/4	*M4/4	*M4/4	*M4/4	*M4/4	*M4/4	*M4/4
=1	=1	=1	=1	=1	=1	=1
4D	4d	4f#	4a	4D	4f#	4a
4r	4r	4r	4r	4r	4r	4r
4BB	4d	4f#	4dd	4BB	4f#	4dd
4r	4r	4r	4r	4r	4r	4r
=2	=2	=2	=2	=2	=2	=2
4FF#	4d	4d	4a	4FF#	4d	4a
4r	4r	4r	4r	4r	4r	4r
4GG	4d	4d	4b	4GG	4d	4b
4r	4r	4r	4r	4r	4r	4r
=3	=3	=3	=3	=3	=3	=3
4AA	4A	4c#	4e	4AA	4c#	4e
4D	4A	4d	4f#	4D	4d	4f#
4AA	4A	4c#	4e	4AA	4c#	4e
4D	4A	4d	4f#	4D	4d	4f#
=4	=4	=4	=4	=4	=4	=4
1AA	1A	1c#	1e	1AA	1c#	1e
=5	=5	=5	=5	=5	=5	=5
1r	1r	1r	1r	1r	1r	16ff#
.	.	.	.	.	.	16aa
.	.	.	.	.	.	16gg
.	.	.	.	.	.	16aa
.	.	.	.	.	.	16ff#
.	.	.	.	.	.	16aa
.	.	.	.	.	.	16gg
.	.	.	.	.	.	16aa
.	.	.	.	.	.	16ee
.	.	.	.	.	.	16aa
.	.	.	.	.	.	16gg
.	.	.	.	.	.	16aa
.	.	.	.	.	.	16ee
.	.	.	.	.	.	16aa
.	.	.	.	.	.	16gg
.	.	.	.	.	.	16aa
=6	=6	=6	=6	=6	=6	=6
1r	1r	4d	16a	1r	4d	16ff#
.	.	.	16dd	.	.	16dd
.	.	.	16cc#	.	.	16cc#
.	.	.	16dd	.	.	16dd
.	.	8r	16a	.	8r	16a
.	.	.	16dd	.	.	16dd
.	.	8f#	16cc#	.	8f#	16cc#
.	.	.	16dd	.	.	16dd
.	.	8g	16b	.	8g	16b
.	.	.	16dd	.	.	16dd
.	.	8e	16cc#	.	8e	16cc#
.	.	.	16dd	.	.	16dd
.	.	8a	16e	.	8a	16e
.	.	.	16dd	.	.	16dd
.	.	8A	16cc#	.	8A	16cc#
.	.	.	16dd	.	.	16dd
=7	=7	=7	=7	=7	=7	=7
1r	1r	4d	4d	1r	4d	16d
.	.	.	.	.	.	16f#
.	.	.	.	.	.	16e
.	.	.	.	.	.	16f#
.	.	2.r	2.r	.	4r	16d
.	.	.	.	.	.	16f#
.	.	.	.	.	.	16e
.	.	.	.	.	.	16d
.	.	.	.	.	16cc#	8a
.	.	.	.	.	16ee	.
.	.	.	.	.	16dd	8e
.	.	.	.	.	16ee	.
.	.	.	.	.	16cc#	[4a
.	.	.	.	.	16ee	.
.	.	.	.	.	16dd	.
.	.	.	.	.	16ee	.
=8	=8	=8	=8	=8	=8	=8
1r	1r	2r	2r	1r	16b	4a]
.	.	.	.	.	16ee	.
.	.	.	.	.	16dd	.
.	.	.	.	.	16ee	.
.	.	.	.	.	16b	4g#
.	.	.	.	.	16ee	.
.	.	.	.	.	16dd	.
.	.	.	.	.	16ee	.
.	.	16ee	4a	.	16cc#	4a
.	.	16aa	.	.	16aa	.
.	.	16gg#	.	.	16gg#	.
.	.	16aa	.	.	16aa	.
.	.	16ee	8r	.	16ee	8r
.	.	16aa	.	.	16aa	.
.	.	16gg#	8cc#	.	16gg#	8cc#
.	.	16aa	.	.	16aa	.
=9	=9	=9	=9	=9	=9	=9
1r	1r	16ff#	8dd	1r	16ff#	8dd
.	.	16aa	.	.	16aa	.
.	.	16gg#	8b	.	16gg#	8b
.	.	16aa	.	.	16aa	.
.	.	16b	8ee	.	16b	8ee
.	.	16aa	.	.	16aa	.
.	.	16gg#	8e	.	16gg#	8e
.	.	16aa	.	.	16aa	.
.	.	4a	4a	.	4a	16a
.	.	.	.	.	.	16aa
.	.	.	.	.	.	16gg#
.	.	.	.	.	.	16aa
.	.	4r	4r	.	8r	16a
.	.	.	.	.	.	16aa
.	.	.	.	.	8a	16gg#
.	.	.	.	.	.	16aa
=10	=10	=10	=10	=10	=10	=10
1r	1r	1r	1r	1r	8g	16b
.	.	.	.	.	.	16aa
.	.	.	.	.	8f#	16gg#
.	.	.	.	.	.	16aa
.	.	.	.	.	8g	16cc#
.	.	.	.	.	.	16aa
.	.	.	.	.	8e	16gg#
.	.	.	.	.	.	16aa
.	.	.	.	.	16f#	4dd
.	.	.	.	.	16aa	.
.	.	.	.	.	16gg	.
.	.	.	.	.	16aa	.
.	.	.	.	.	16a	8r
.	.	.	.	.	16aa	.
.	.	.	.	.	16gg	8a
.	.	.	.	.	16aa	.
=11	=11	=11	=11	=11	=11	=11
2r	2r	2r	2r	2r	16b	8g
.	.	.	.	.	16aa	.
.	.	.	.	.	16gg	8f#
.	.	.	.	.	16aa	.
.	.	.	.	.	16cc#	8g
.	.	.	.	.	16aa	.
.	.	.	.	.	16gg	8e
.	.	.	.	.	16aa	.
4d	4a	4aa	8ff#	4d	4dd	16ddd
.	.	.	.	.	.	16aa
.	.	.	8aa	.	.	16bb
.	.	.	.	.	.	16ccc#
4c#	4r	4r	8ee	4c#	4r	16ddd
.	.	.	.	.	.	16aa
.	.	.	8aa	.	.	16bb
.	.	.	.	.	.	16ccc#
=12	=12	=12	=12	=12	=12	=12
4B	8b	8dd	4dd	4B	16ddd	4ddd
.	.	.	.	.	16aa	.
.	16dd	8ff#	.	.	16bb	.
.	16cc#	.	.	.	16ccc#	.
4r	8b	8bb	4r	4r	16ddd	4r
.	.	.	.	.	16aa	.
.	8B	8ff#	.	.	16bb	.
.	.	.	.	.	16ccc#	.
4B	4f#	4dd	8dd	4B	4ddd	16ddd
.	.	.	.	.	.	16aa
.	.	.	8ff#	.	.	16bb
.	.	.	.	.	.	16ccc#
4A	4r	4r	8cc#	4A	4r	16ddd
.	.	.	.	.	.	16ccc#
.	.	.	8ff#	.	.	16ddd
.	.	.	.	.	.	16ccc#
=13	=13	=13	=13	=13	=13	=13
4G	8g	8b	4b	4G	16ddd	4ddd
.	.	.	.	.	16aa	.
.	16g	8dd	.	.	16bb	.
.	16a	.	.	.	16ccc#	.
4r	8b	8gg	4r	4r	16ddd	4r
.	.	.	.	.	16ccc#	.
.	8g	8bb	.	.	16ddd	.
.	.	.	.	.	16ccc#	.
4F#	4dd	4aa	8aa	4F#	4ddd	16aa
.	.	.	.	.	.	16ddd
.	.	.	8a	.	.	16ccc#
.	.	.	.	.	.	16ddd
8r	8r	8r	[4dd	8r	8r	16aa
.	.	.	.	.	.	16ddd
8F#	8a	8ff#	.	8F#	8ff#	16ccc#
.	.	.	.	.	.	16ddd
=14	=14	=14	=14	=14	=14	=14
8G	8b	4ee	4dd]	8G	4ee	16bb
.	.	.	.	.	.	16ddd
8E	8g	.	.	8E	.	16ccc#
.	.	.	.	.	.	16ddd
8A	4a	8r	4cc#	8A	8r	16ee
.	.	.	.	.	.	16ddd
8AA	.	8aa	.	8AA	8aa	16ccc#
.	.	.	.	.	.	16ddd
4D	4a	4ff#	8dd	4D	16ff#	8dd
.	.	.	.	.	16ee	.
.	.	.	8aa	.	16dd	8aa
.	.	.	.	.	16ee	.
8r	8r	8r	8ff#	8r	16ff#	8ff#
.	.	.	.	.	16aa	.
8d	8a	8ff#	8dd	8d	16gg	8dd
.	.	.	.	.	16ff#	.
=15	=15	=15	=15	=15	=15	=15
8c#	4a	4ee	8aa	8c#	16ee	8aa
.	.	.	.	.	16dd	.
8B	.	.	8ee	8B	16ee	8ee
.	.	.	.	.	16ff#	.
8c#	8r	8r	2aa	8c#	16ee	2aa
.	.	.	.	.	16ff#	.
8A	8a	8cc#	.	8A	16ee	.
.	.	.	.	.	16ff#	.
8B	4f#	8dd	.	8B	16dd	.
.	.	.	.	.	16cc#	.
8A	.	8ff#	.	8A	16dd	.
.	.	.	.	.	16ee	.
8B	8r	8b	4gg#	8B	16dd	4gg#
.	.	.	.	.	16ff#	.
8E	8e	8ee	.	8E	16ee	.
.	.	.	.	.	16dd	.
=16	=16	=16	=16	=16	=16	=16
8A	4e	8cc#	4aa	8A	8cc#	16aa
.	.	.	.	.	.	16cc#
8AA	.	8a	.	8AA	8a	16b
.	.	.	.	.	.	16cc#
8r	8r	[4ff#	8r	8r	4.ff#	16a
.	.	.	.	.	.	16cc#
8A	8cc#	.	8ff#	8A	.	16b
.	.	.	.	.	.	16a
8G#	8b	8ff#]	4b	8G#	.	16b
.	.	.	.	.	.	16a
8F#	8a	8b	.	8F#	8b	16b
.	.	.	.	.	.	16cc#
8G#	8b	[4ee	8r	8G#	[4ee	16b
.	.	.	.	.	.	16dd
8c#	8g#	.	8ee	8c#	.	16cc#
.	.	.	.	.	.	16b
=17	=17	=17	=17	=17	=17	=17
4F#	4a	8ee]	4a	4F#	8ee]	16a
.	.	.	.	.	.	16g#
.	.	8a	.	.	8a	16a
.	.	.	.	.	.	16b
8r	8r	2dd	8r	8r	2dd	16a
.	.	.	.	.	.	16cc#
8B	8dd	.	8dd	8B	.	16b
.	.	.	.	.	.	16a
4E	4b	.	8g#	4E	.	16g#
.	.	.	.	.	.	16ee
.	.	.	8e	.	.	16dd
.	.	.	.	.	.	16ee
8r	8r	4cc#	[4a	8r	4cc#	16a
.	.	.	.	.	.	16aa
8C#	8e	.	.	8C#	.	16gg#
.	.	.	.	.	.	16aa
=18	=18	=18	=18	=18	=18	=18
8D	8f#	2b	4a]	8D	4b	16ff#
.	.	.	.	.	.	16aa
8BB	8d	.	.	8BB	.	16gg#
.	.	.	.	.	.	16aa
8E	4e	.	4g#	8E	8r	16b
.	.	.	.	.	.	16aa
8EE	.	.	.	8EE	8ee	16gg#
.	.	.	.	.	.	16aa
4A	4e	4a	8cc#	4A	4cc#	16a
.	.	.	.	.	.	16ee
.	.	.	8ee	.	.	16ff#
.	.	.	.	.	.	16gg#
4G#	4r	4r	8b	4G#	4r	16aa
.	.	.	.	.	.	16ee
.	.	.	8ee	.	.	16ff#
.	.	.	.	.	.	16gg#
=19	=19	=19	=19	=19	=19	=19
4F#	8f#	8a	4a	4F#	16aa	4aa
.	.	.	.	.	16ee	.
.	16a	8cc#	.	.	16ff#	.
.	16g#	.	.	.	16gg#	.
4r	8f#	8ff#	4r	4r	16aa	4r
.	.	.	.	.	16ee	.
.	8F#	8cc#	.	.	16ff#	.
.	.	.	.	.	16gg#	.
4F#	4c#	4a	8a	4F#	4aa	16aa
.	.	.	.	.	.	16ee
.	.	.	8cc#	.	.	16ff#
.	.	.	.	.	.	16gg#
4E	4r	4r	8g#	4E	4r	16aa
.	.	.	.	.	.	16gg#
.	.	.	8cc#	.	.	16aa
.	.	.	.	.	.	16gg#
=20	=20	=20	=20	=20	=20	=20
4D	8d	8f#	4f#	4D	16aa	4aa
.	.	.	.	.	16ee	.
.	16d	8a	.	.	16ff#	.
.	16e	.	.	.	16gg#	.
4r	8f#	8dd	4r	4r	16aa	4r
.	.	.	.	.	16gg#	.
.	8d	8ff#	.	.	16aa	.
.	.	.	.	.	16gg#	.
4C#	4a	4ee	8ee	4C#	4aa	16ee
.	.	.	.	.	.	16aa
.	.	.	8e	.	.	16gg#
.	.	.	.	.	.	16aa
8r	8r	8r	[4a	8r	8r	16ee
.	.	.	.	.	.	16aa
8C#	8e	8cc#	.	8C#	8cc#	16gg#
.	.	.	.	.	.	16aa
=21	=21	=21	=21	=21	=21	=21
8D	8f#	4b	4a]	8D	4b	16ff#
.	.	.	.	.	.	16aa
8BB	8d	.	.	8BB	.	16gg#
.	.	.	.	.	.	16aa
8E	4e	8r	4g#	8E	8r	16b
.	.	.	.	.	.	16aa
8EE	.	8ee	.	8EE	8ee	16gg#
.	.	.	.	.	.	16aa
4A	4e	4cc#	8cc#	4A	4cc#	16a
.	.	.	.	.	.	16ee
.	.	.	8ee	.	.	16ff#
.	.	.	.	.	.	16gg#
4G#	4r	4r	8b	4G#	4r	16aa
.	.	.	.	.	.	16ee
.	.	.	8ee	.	.	16ff#
.	.	.	.	.	.	16gg#
=22	=22	=22	=22	=22	=22	=22
4F#	8f#	8a	4a	4F#	16aa	4aa
.	.	.	.	.	16ee	.
.	16a	8cc#	.	.	16ff#	.
.	16g#	.	.	.	16gg#	.
4r	8f#	8ff#	4r	4r	16aa	4r
.	.	.	.	.	16ee	.
.	8F#	8cc#	.	.	16ff#	.
.	.	.	.	.	16gg#	.
4F#	4c#	4a	8a	4F#	4aa	16aa
.	.	.	.	.	.	16ee
.	.	.	8cc#	.	.	16ff#
.	.	.	.	.	.	16gg#
4E	4r	4r	8g#	4E	4r	16aa
.	.	.	.	.	.	16gg#
.	.	.	8cc#	.	.	16aa
.	.	.	.	.	.	16gg#
=23	=23	=23	=23	=23	=23	=23
4D	8d	8f#	4f#	4D	16aa	4aa
.	.	.	.	.	16ee	.
.	16d	8a	.	.	16ff#	.
.	16e	.	.	.	16gg#	.
4r	8f#	8dd	4r	4r	16aa	4r
.	.	.	.	.	16gg#	.
.	8d	8ff#	.	.	16aa	.
.	.	.	.	.	16gg#	.
4C#	4a	4ee	8ee	4C#	4aa	16ee
.	.	.	.	.	.	16aa
.	.	.	8e	.	.	16gg#
.	.	.	.	.	.	16aa
8r	8r	8r	[4a	8r	8r	16ee
.	.	.	.	.	.	16aa
8C#	8e	8cc#	.	8C#	8cc#	16gg#
.	.	.	.	.	.	16aa
=24	=24	=24	=24	=24	=24	=24
8D	8f#	4b	4a]	8D	4b	16ff#
.	.	.	.	.	.	16aa
8BB	8d	.	.	8BB	.	16gg#
.	.	.	.	.	.	16aa
8E	4e	8r	4g#	8E	8r	16b
.	.	.	.	.	.	16aa
8EE	.	8ee	.	8EE	8ee	16gg#
.	.	.	.	.	.	16aa
4AA	4e	4cc#	4a	4AA	16cc#	4a
.	.	.	.	.	16aa	.
.	.	.	.	.	16gg#	.
.	.	.	.	.	16aa	.
8r	8r	8r	8r	4r	16ee	8r
.	.	.	.	.	16aa	.
8C#	8e	8a	8cc#	.	16gg#	8cc#
.	.	.	.	.	16aa	.
=25	=25	=25	=25	=25	=25	=25
4D	4f#	4a	4b	4D	16ff#	4b
.	.	.	.	.	16aa	.
.	.	.	.	.	16gg#	.
.	.	.	.	.	16aa	.
4E	4e	8r	8r	4E	16b	8r
.	.	.	.	.	16aa	.
.	.	8g#	8ee	.	16gg#	8ee
.	.	.	.	.	16aa	.
2AA	2e	2a	2cc#	2AA	2a	2cc#
=26	=26	=26	=26	=26	=26	=26
4r	4a	4r	4ee	4r	1r	16cc#
.	.	.	.	.	.	16ee
.	.	.	.	.	.	16dd
.	.	.	.	.	.	16ee
4A	4A	4ee	4r	4A	.	16cc#
.	.	.	.	.	.	16ee
.	.	.	.	.	.	16dd
.	.	.	.	.	.	16ee
4G#	4r	4r	4ee	4G#	.	16b
.	.	.	.	.	.	16ee
.	.	.	.	.	.	16dd
.	.	.	.	.	.	16ee
4E	4e	4ee	4r	4E	.	16b
.	.	.	.	.	.	16ee
.	.	.	.	.	.	16dd
.	.	.	.	.	.	16ee
=27	=27	=27	=27	=27	=27	=27
4AA	4e	4r	4ee	4AA	16cc#	4cc#
.	.	.	.	.	16ee	.
.	.	.	.	.	16dd	.
.	.	.	.	.	16ee	.
4A	2r	4ee	4r	4A	16cc#	4A
.	.	.	.	.	16ee	.
.	.	.	.	.	16dd	.
.	.	.	.	.	16ee	.
4G#	.	4r	4ee	4G#	16b	4e
.	.	.	.	.	16ee	.
.	.	.	.	.	16dd	.
.	.	.	.	.	16ee	.
4E	4e	4ee	4r	4E	16b	4r
.	.	.	.	.	16ee	.
.	.	.	.	.	16dd	.
.	.	.	.	.	16ee	.
=28	=28	=28	=28	=28	=28	=28
4r	4A	4r	4ff#	4r	4cc#	16cc#
.	.	.	.	.	.	16ff#
.	.	.	.	.	.	16ee
.	.	.	.	.	.	16ff#
4B	2r	4ff#	4r	4B	4f#	16dd
.	.	.	.	.	.	16ff#
.	.	.	.	.	.	16ee
.	.	.	.	.	.	16ff#
4A#	.	4r	4ff#	4A#	4cc#	16cc#
.	.	.	.	.	.	16ff#
.	.	.	.	.	.	16ee
.	.	.	.	.	.	16ff#
4F#	4f#	4ff#	4r	4F#	4r	16cc#
.	.	.	.	.	.	16ff#
.	.	.	.	.	.	16ee
.	.	.	.	.	.	16ff#
=29	=29	=29	=29	=29	=29	=29
4BB	4f#	4r	4ff#	4BB	16dd	4dd
.	.	.	.	.	16ff#	.
.	.	.	.	.	16ee	.
.	.	.	.	.	16ff#	.
4B	2r	4ff#	4r	4B	16dd	4B
.	.	.	.	.	16ff#	.
.	.	.	.	.	16ee	.
.	.	.	.	.	16ff#	.
4A#	.	4r	4ff#	4A#	16cc#	4f#
.	.	.	.	.	16ff#	.
.	.	.	.	.	16ee	.
.	.	.	.	.	16ff#	.
4F#	4f#	4ff#	4r	4F#	16cc#	4r
.	.	.	.	.	16ff#	.
.	.	.	.	.	16ee	.
.	.	.	.	.	16ff#	.
=30	=30	=30	=30	=30	=30	=30
4r	4B	4dd	8ff#	4r	4dd	16ff#
.	.	.	.	.	.	16dd
.	.	.	8dd	.	.	16ee
.	.	.	.	.	.	16ff#
4B	8r	8r	4gg	4B	8r	16gg
.	.	.	.	.	.	16aa
.	8g	8b	.	.	8b	16gg
.	.	.	.	.	.	16aa
4A	4a	4cc#	8r	4A	4cc#	16gg
.	.	.	.	.	.	16cc#
.	.	.	8cc#	.	.	16dd
.	.	.	.	.	.	16ee
4D	8r	8r	4ff#	4D	8r	16ff#
.	.	.	.	.	.	16gg
.	8f#	8f#	.	.	8f#	16ff#
.	.	.	.	.	.	16gg
=31	=31	=31	=31	=31	=31	=31
4G	4g	4b	8r	4G	4b	16ff#
.	.	.	.	.	.	16b
.	.	.	8b	.	.	16cc#
.	.	.	.	.	.	16dd
4C#	8r	8r	2ee	4C#	8r	16ee
.	.	.	.	.	.	16ff#
.	8e	8cc#	.	.	8cc#	16ee
.	.	.	.	.	.	16ff#
4F#	4c#	8a#	.	4F#	8a#	16ee
.	.	.	.	.	.	16gg
.	.	8f#	.	.	8f#	16ff#
.	.	.	.	.	.	16ee
4BB	4f#	[4b	4dd	4BB	[4b	16dd
.	.	.	.	.	.	16ff#
.	.	.	.	.	.	16ee
.	.	.	.	.	.	16dd
=32	=32	=32	=32	=32	=32	=32
4E	8g	4b]	2cc#	4E	4b]	16cc#
.	.	.	.	.	.	16ff#
.	8b	.	.	.	.	16ee
.	.	.	.	.	.	16dd
4F#	4f#	4a#	.	4F#	4a#	4cc#
4BB	4f#	4b	4b	4BB	4b	16b
.	.	.	.	.	.	16bb
.	.	.	.	.	.	16aa#
.	.	.	.	.	.	16bb
4r	4r	4r	4r	4r	4r	16ff#
.	.	.	.	.	.	16bb
.	.	.	.	.	.	16aa#
.	.	.	.	.	.	16bb
=33	=33	=33	=33	=33	=33	=33
1r	1r	8b	8b	8B	2r	16dd#
.	.	.	.	.	.	16bb
.	.	8cc#	8cc#	8c#	.	16aa
.	.	.	.	.	.	16bb
.	.	8dd#	8dd#	8d#	.	16b
.	.	.	.	.	.	16bb
.	.	8b	8b	8B	.	16aa
.	.	.	.	.	.	16bb
.	.	4ee	4ee	4e	16r	4gg
.	.	.	.	.	16bb	.
.	.	.	.	.	16aa	.
.	.	.	.	.	16bb	.
.	.	4r	4r	4r	16ff#	4r
.	.	.	.	.	16bb	.
.	.	.	.	.	16aa	.
.	.	.	.	.	16bb	.
=34	=34	=34	=34	=34	=34	=34
1r	1r	8B	8B	8B	16dd#	4ff#
.	.	.	.	.	16bb	.
.	.	8c#	8c#	8c#	16aa	.
.	.	.	.	.	16bb	.
.	.	8d#	8d#	8d#	16b	4r
.	.	.	.	.	16bb	.
.	.	8B	8B	8B	16aa	.
.	.	.	.	.	16bb	.
.	.	4e	4e	4e	4gg	16r
.	.	.	.	.	.	16bb
.	.	.	.	.	.	16aa
.	.	.	.	.	.	16bb
.	.	4g	4g	4G	4r	16b
.	.	.	.	.	.	16bb
.	.	.	.	.	.	16b
.	.	.	.	.	.	16bb
=35	=35	=35	=35	=35	=35	=35
1r	1r	4a	4a	4A	4ff#	16cc#
.	.	.	.	.	.	16bb
.	.	.	.	.	.	16cc#
.	.	.	.	.	.	16bb
.	.	4b	4b	4B	4r	16dd#
.	.	.	.	.	.	16bb
.	.	.	.	.	.	16dd#
.	.	.	.	.	.	16bb
.	.	4cc	4cc	4c	16r	2ee
.	.	.	.	.	16bb	.
.	.	.	.	.	16aa	.
.	.	.	.	.	16bb	.
.	.	4g	4g	4G	16b	.
.	.	.	.	.	16bb	.
.	.	.	.	.	16b	.
.	.	.	.	.	16bb	.
=36	=36	=36	=36	=36	=36	=36
2r	2r	4a	4a	4A	16cc#	2ee
.	.	.	.	.	16bb	.
.	.	.	.	.	16cc#	.
.	.	.	.	.	16bb	.
.	.	4b	4b	4B	16dd#	.
.	.	.	.	.	16bb	.
.	.	.	.	.	16dd#	.
.	.	.	.	.	16bb	.
8C	4a	8cc	8cc	8C	8ee	4ee
8c	.	8aa	8dd#	8c	8aa	.
8B	8r	8gg	[4ee	8B	8gg	[4ee
8A	8cc	8ff#	.	8A	8ff#	.
=37	=37	=37	=37	=37	=37	=37
4B	4b	4gg	4ee]	4B	4gg	4ee]
4BB	4b	4ff#	4dd#	4BB	4ff#	4dd#
8E	4b	4ee	8ee	8E	16r	8ee
.	.	.	.	.	16ee	.
8F#	.	.	8b	8F#	16dd	8b
.	.	.	.	.	16ee	.
8G#	4r	8r	4ee	8G#	16b	4ee
.	.	.	.	.	16ee	.
8F#	.	8b	.	8F#	16dd	.
.	.	.	.	.	16ee	.
=38	=38	=38	=38	=38	=38	=38
8E	8g#	4ee	8r	8E	16g#	8r
.	.	.	.	.	16ee	.
8F#	8a	.	8b	8F#	16dd	8b
.	.	.	.	.	16ee	.
8G#	8b	8r	4ee	8G#	16e	4ee
.	.	.	.	.	16ee	.
8E	8g#	8b	.	8E	16dd	.
.	.	.	.	.	16ee	.
8A	4a	4cc#	8r	8A	8cc#	16r
.	.	.	.	.	.	16aa
8B	.	.	8ee	8B	8ee	16gg#
.	.	.	.	.	.	16aa
8c#	4r	8r	4aa	8c#	4aa	16ee
.	.	.	.	.	.	16aa
8B	.	8ee	.	8B	.	16gg#
.	.	.	.	.	.	16aa
=39	=39	=39	=39	=39	=39	=39
8A	8cc#	4aa	8r	8A	8r	16cc#
.	.	.	.	.	.	16aa
8B	8dd	.	8ee	8B	8ee	16gg#
.	.	.	.	.	.	16aa
8c#	8ee	8r	4aa	8c#	4aa	16a
.	.	.	.	.	.	16aa
8A	8cc#	8ee	.	8A	.	16gg#
.	.	.	.	.	.	16aa
8D	4dd	4ff#	8r	8D	16r	8ff#
.	.	.	.	.	16dd	.
8E	.	.	8aa	8E	16cc#	8aa
.	.	.	.	.	16dd	.
8F#	4r	8r	4ddd	8F#	16a	4ddd
.	.	.	.	.	16dd	.
8E	.	8aa	.	8E	16cc#	.
.	.	.	.	.	16dd	.
=40	=40	=40	=40	=40	=40	=40
8D	8f#	4ddd	8r	8D	16f#	8r
.	.	.	.	.	16dd	.
8E	8g	.	8aa	8E	16cc#	8aa
.	.	.	.	.	16dd	.
8F#	8a	8r	4ddd	8F#	16d	4ddd
.	.	.	.	.	16dd	.
8D	8f#	8aa	.	8D	16cc#	.
.	.	.	.	.	16dd	.
4G	4g	4bb	8r	4G	16b	16r
.	.	.	.	.	16bb	16ddd
.	.	.	8dd	.	16aa	16ccc#
.	.	.	.	.	16bb	16ddd
4r	4r	8r	8gg	4r	16gg	16bb
.	.	.	.	.	16aa	16ccc#
.	.	8dd	8aa	.	16ff#	16aa
.	.	.	.	.	16gg	16bb
=41	=41	=41	=41	=41	=41	=41
4G	4g	8gg	8bb	4G	16ee	16gg
.	.	.	.	.	16gg	16bb
.	.	8ff#	8aa	.	16ff#	16aa
.	.	.	.	.	16gg	16bb
4GG	4b	8ee	8gg	4GG	16ee	16gg
.	.	.	.	.	16ff#	16aa
.	.	8dd	8ff#	.	16dd	16ff#
.	.	.	.	.	16ee	16gg
4AA	4e	4cc#	4ee	4AA	8cc#	4ee
.	.	.	.	.	8a	.
4r	4r	8r	8r	4r	8dd	8r
.	.	8f#	8f#	.	8d	8aa
=42	=42	=42	=42	=42	=42	=42
1r	1r	8g	8g	1r	8r	8bb
.	.	8f#	8f#	.	8b	8g
.	.	8g	8g	.	8ee	8r
.	.	8e	8e	.	8e	8bb
.	.	8a	8a	.	8r	8ccc#
.	.	8g	8g	.	8cc#	8a
.	.	8a	8a	.	8ff#	8r
.	.	8f#	8f#	.	8f#	8ccc#
=43	=43	=43	=43	=43	=43	=43
2r	2r	8b	8b	2r	8r	8ddd
.	.	8a	8a	.	8dd	8b
.	.	8b	8b	.	2gg	8r
.	.	8g	8g	.	.	8b
8AA	4e	4gg	8cc#	8AA	.	8cc#
8A	.	.	8a	8A	.	8a
8B	8r	4ff#	[4dd	8B	4ff#	[4dd
8F#	8a	.	.	8F#	.	.
=44	=44	=44	=44	=44	=44	=44
8G	8b	2ee	4dd]	8G	4ee	4dd]
8E	8g	.	.	8E	.	.
8A	4a	.	4cc#	8A	8r	4cc#
8AA	.	.	.	8AA	8aa	.
4d	4a	4dd	8ff#	4d	4ff#	16ddd
.	.	.	.	.	.	16aa
.	.	.	8aa	.	.	16bb
.	.	.	.	.	.	16ccc#
4c#	4r	4r	8ee	4c#	4r	16ddd
.	.	.	.	.	.	16aa
.	.	.	8aa	.	.	16bb
.	.	.	.	.	.	16ccc#
=45	=45	=45	=45	=45	=45	=45
4B	8b	8dd	4dd	4B	16ddd	4ddd
.	.	.	.	.	16aa	.
.	16dd	8ff#	.	.	16bb	.
.	16cc#	.	.	.	16ccc#	.
4r	8b	8bb	4r	4r	16ddd	4r
.	.	.	.	.	16aa	.
.	8B	8ff#	.	.	16bb	.
.	.	.	.	.	16ccc#	.
4B	4f#	4dd	8dd	4B	4ddd	16ddd
.	.	.	.	.	.	16aa
.	.	.	8ff#	.	.	16bb
.	.	.	.	.	.	16ccc#
4A	4r	4r	8cc#	4A	4r	16ddd
.	.	.	.	.	.	16ccc#
.	.	.	8ff#	.	.	16ddd
.	.	.	.	.	.	16ccc#
=46	=46	=46	=46	=46	=46	=46
4G	8g	8b	4b	4G	16ddd	4ddd
.	.	.	.	.	16aa	.
.	16g	8dd	.	.	16bb	.
.	16a	.	.	.	16ccc#	.
4r	8b	8gg	4r	4r	16ddd	4r
.	.	.	.	.	16ccc#	.
.	8g	8bb	.	.	16ddd	.
.	.	.	.	.	16ccc#	.
4F#	4dd	4aa	8aa	4F#	4ddd	16aa
.	.	.	.	.	.	16ddd
.	.	.	8cc#	.	.	16ccc#
.	.	.	.	.	.	16ddd
8r	8r	8r	[4dd	8r	8r	16aa
.	.	.	.	.	.	16ddd
8F#	8a	8ff#	.	8F#	8ff#	16ccc#
.	.	.	.	.	.	16ddd
=47	=47	=47	=47	=47	=47	=47
8G	8b	4ee	4dd]	8G	4ee	16bb
.	.	.	.	.	.	16ddd
8E	8g	.	.	8E	.	16ccc#
.	.	.	.	.	.	16ddd
8A	4a	8r	4cc#	8A	8r	16ee
.	.	.	.	.	.	16ddd
8AA	.	8aa	.	8AA	8aa	16ccc#
.	.	.	.	.	.	16ddd
4D	4a	4ff#	8f#	4D	16ff#	4dd
.	.	.	.	.	16a	.
.	.	.	8a	.	16b	.
.	.	.	.	.	16cc#	.
4C#	4r	4r	8e	4C#	16dd	4r
.	.	.	.	.	16a	.
.	.	.	8a	.	16b	.
.	.	.	.	.	16cc#	.
=48	=48	=48	=48	=48	=48	=48
4BB	8b	8d	4d	4BB	4dd	16dd
.	.	.	.	.	.	16a
.	16dd	8f#	.	.	.	16b
.	16cc#	.	.	.	.	16cc#
4r	8b	8b	4r	4r	4r	16dd
.	.	.	.	.	.	16a
.	8B	8f#	.	.	.	16b
.	.	.	.	.	.	16cc#
4BB	4f#	4d	8d	4BB	16dd	4dd
.	.	.	.	.	16a	.
.	.	.	8f#	.	16b	.
.	.	.	.	.	16cc#	.
4AA	4r	4r	8c#	4AA	16dd	4r
.	.	.	.	.	16cc#	.
.	.	.	8f#	.	16dd	.
.	.	.	.	.	16cc#	.
=49	=49	=49	=49	=49	=49	=49
4GG	8g	8B	4B	4GG	4dd	16dd
.	.	.	.	.	.	16a
.	16g	8d	.	.	.	16b
.	16a	.	.	.	.	16cc#
4r	8b	8g	4r	4r	4r	16dd
.	.	.	.	.	.	16cc#
.	8g	8b	.	.	.	16dd
.	.	.	.	.	.	16cc#
4F#	4dd	4a	8a	4F#	16a	4dd
.	.	.	.	.	16dd	.
.	.	.	8A	.	16cc#	.
.	.	.	.	.	16dd	.
8r	8r	8r	[4d	8r	16a	8r
.	.	.	.	.	16dd	.
8F#	8a	8f#	.	8F#	16cc#	8f#
.	.	.	.	.	16dd	.
=50	=50	=50	=50	=50	=50	=50
8G	8b	4e	4d]	8G	16b	4e
.	.	.	.	.	16dd	.
8E	8g	.	.	8E	16cc#	.
.	.	.	.	.	16dd	.
8A	4a	8r	4c#	8A	16e	8r
.	.	.	.	.	16dd	.
8AA	.	8a	.	8AA	16cc#	8a
.	.	.	.	.	16dd	.
4D	4a	4f#	4d	4D	4d	16f#
.	.	.	.	.	.	16dd
.	.	.	.	.	.	16cc#
.	.	.	.	.	.	16dd
4r	8r	8r	8r	4r	8r	16a
.	.	.	.	.	.	16dd
.	8A	8d	8f#	.	8f#	16cc#
.	.	.	.	.	.	16dd
=51	=51	=51	=51	=51	=51	=51
4GG	4B	4d	4e	4GG	4e	16b
.	.	.	.	.	.	16dd
.	.	.	.	.	.	16cc#
.	.	.	.	.	.	16dd
4AA	4A	8r	8r	4AA	8r	16e
.	.	.	.	.	.	16dd
.	.	8c#	8a	.	8a	16cc#
.	.	.	.	.	.	16dd
2DD	2A	2d	2f#	2DD	2f#	2d
==	==	==	==	==	==	==
*-	*-	*-	*-	*-	*-	*-
!!!RWG: This file only contains pitch and duration data.
!!!RWG: Transposing instruments are not transposed.
!!!RWG: Durations of rests and tied notes may be interpreted.
!!!RWG: Key is interpreted using the Humdrum key tool.
!!!SCA: 
!!!YOR: Chrysander Edition
!!!AGN: concerto grosso
!!!AFT: stage1
!!!ENC: F. Bennion
!!!END: 1997/04/15
!!!AST: baroque
!!!YEC: Copyright 1994, Center for Computer Assisted Research in the Humanities
!!!YEM: Rights to all derivative electronic formats reserved.
!!!YEM: Refer to licensing agreement for further details.
!!!YEN: United States of America
!!!EED: W.B. Hewlett
!!!KEY: 1516679552
!!!EMD: Converted from MuseData to Humdrum Aug 9, 1999, by Bret Aarden using muse2kern.
!!!VTS: 3626263406
